public/assets/icons/share.svg

<svg width="20" height="20" viewBox="0 0 20 20" fill="none" xmlns="http://www.w3.org/2000/svg">
<path fill-rule="evenodd" clip-rule="evenodd" d="M11.895 3.84001C11.9057 3.84953 11.9164 3.85908 11.9272 3.86865L15.2721 6.84185C15.8962 7.39659 16.4136 7.85646 16.7688 8.27392C17.1421 8.71268 17.408 9.18505 17.408 9.76958C17.408 10.3541 17.1421 10.8265 16.7688 11.2652C16.4136 11.6827 15.8962 12.1426 15.2721 12.6973L11.9272 15.6705C11.9164 15.6801 11.9057 15.6896 11.895 15.6992C11.6246 15.9395 11.3723 16.1639 11.1543 16.3078C10.9403 16.4492 10.551 16.6545 10.1149 16.4586C9.67888 16.2628 9.57372 15.8355 9.53714 15.5816C9.49988 15.3231 9.49994 14.9854 9.5 14.6236C9.5 14.6093 9.5 14.5949 9.5 14.5805V13.2734C8.29042 13.3568 7.06469 13.678 5.99252 14.2005C4.73173 14.8148 3.72483 15.6859 3.17837 16.7268C3.04471 16.9814 2.75458 17.1119 2.47539 17.0431C2.1962 16.9742 2 16.7238 2 16.4362C2 12.5021 3.15115 9.94047 4.79708 8.36562C6.23175 6.99291 7.9803 6.42964 9.5 6.31176V4.95862C9.5 4.94422 9.5 4.92985 9.5 4.91552C9.49994 4.55375 9.49988 4.2161 9.53714 3.95756C9.57372 3.70366 9.67888 3.27634 10.1149 3.08052C10.551 2.8847 10.9403 3.09 11.1543 3.23133C11.3723 3.37526 11.6246 3.59962 11.895 3.84001ZM10.7526 4.50038C10.8468 4.58113 10.9593 4.68072 11.0967 4.80291L14.407 7.74535C15.0746 8.33875 15.525 8.74108 15.8168 9.084C16.0971 9.41334 16.158 9.60567 16.158 9.76958C16.158 9.93349 16.0971 10.1258 15.8168 10.4552C15.525 10.7981 15.0746 11.2004 14.407 11.7938L11.0967 14.7363C10.9593 14.8584 10.8468 14.958 10.7526 15.0388C10.7503 14.9147 10.75 14.7645 10.75 14.5805V12.6267C10.75 12.2815 10.4702 12.0017 10.125 12.0017C8.53119 12.0017 6.87496 12.38 5.44498 13.0768C4.6793 13.4499 3.9665 13.9205 3.3616 14.4836C3.66891 11.9444 4.57701 10.3062 5.66125 9.26879C7.01129 7.97706 8.71702 7.53744 10.125 7.53744C10.4702 7.53744 10.75 7.25762 10.75 6.91244V4.95862C10.75 4.7747 10.7503 4.62445 10.7526 4.50038Z" fill="#877EFF"/>
</svg>

<svg width="20" height="20" viewBox="0 0 20 20" fill="none" xmlns="http://www.w3.org/2000/svg"><path fill-rule="evenodd" clip-rule="evenodd" d="m11.895 3.84.032.029 3.345 2.973c.624.555 1.142 1.014 1.497 1.432.373.439.639.911.639 1.496 0 .584-.266 1.056-.64 1.495-.354.418-.872.878-1.496 1.432l-3.345 2.974-.032.028c-.27.24-.523.465-.74.609-.215.141-.604.346-1.04.15s-.541-.622-.578-.876c-.037-.259-.037-.597-.037-.958v-1.351a9.6 9.6 0 0 0-3.507.928c-1.261.614-2.268 1.485-2.815 2.526A.625.625 0 0 1 2 16.437c0-3.935 1.151-6.497 2.797-8.071C6.232 6.993 7.98 6.43 9.5 6.312V4.916c0-.362 0-.7.037-.958.037-.254.142-.682.578-.877.436-.196.825.009 1.04.15.217.144.47.369.74.609m-1.142.66q.139.12.344.303l3.31 2.942c.668.594 1.118.996 1.41 1.339.28.33.341.522.341.686 0 .163-.06.356-.341.685-.292.343-.742.745-1.41 1.339l-3.31 2.942q-.205.182-.344.303l-.003-.458v-1.954a.625.625 0 0 0-.625-.625c-1.594 0-3.25.378-4.68 1.075a8.6 8.6 0 0 0-2.083 1.407c.307-2.54 1.215-4.178 2.3-5.215 1.35-1.292 3.055-1.732 4.463-1.732.345 0 .625-.28.625-.625V4.96q0-.274.003-.459" fill="#877EFF"/></svg>
